X:1
T:Wohlfahrt Violin Studies - #1
T:Wohlfahrt Foundation Studies - No. 5
T:Op 45 No 2
T:Franz Wohlfahrt
C:Franz Wohlfahrt
%%score 1 { 2 | 3 }
L:1/8
Q:1/4=120
M:4/4
K:C
V:1 treble nm="Violin"
V:2 treble nm="Piano"
V:3 bass 
V:1
"C" C E A G F E D C |"G7" B, C D C B, G, A, B, |"C" C E A G F E D C |"G7" B, C D C B, G, A, B, | %4
"C" C E A G F E D E |"F" F A d c B A G F |"C" E G F E"G7" D F E D |"C" C G, A, B, C D E ^F | %8
"G" G B e d c B A G |"D7" ^F G A G F D E F |"G" G B e d c B A G |"D7" ^F G A G F D E F | %12
"G" G B e d c B A B | c e a g ^f e d c | B d c B A c B A | G B e d c B A G |"G7" =F B d c B A G F | %17
"C" E G c B A G F E |"G7" D F B A G F E D |"C" C E A G F E D C |"G" B, C D C B, G, A, B, | %21
"C" C E A G F E D C |"G" B, C D C B, G, A, B, |"C" C E A G F E D E |"F" F A d c B A G F | %25
"C" E G F E"G" D F E D |"C" C E G E C z z2 |] %27
V:2
"C" CEAG FEDC |"G7" B,CDC B,G,A,B, |"C" CEAG FEDC |"G7" B,CDC B,G,A,B, |"C" CEAG FEDE | %5
"F" FAdc BAGF |"C" EGFE"G7" DFED |"C" CG,A,B, CDE^F |"G" GBed cBAG |"D7" ^FGAG FDEF | %10
"G" GBed cBAG |"D7" ^FGAG FDEF |"G" GBed cBAB | ceag ^fedc | BdcB AcBA | GBed cBAG | %16
"G7" =FBdc BAGF |"C" EGcB AGFE |"G7" DFBA GFED |"C" CEAG FEDC |"G" B,CDC B,G,A,B, |"C" CEAG FEDC | %22
"G" B,CDC B,G,A,B, |"C" CEAG FEDE |"F" FAdc BAGF |"C" EGFE"G" DFED |"C" CEGE C z z2 |] %27
V:3
 C,2 [E,G,]2 G,,2 [E,G,]2 | G,,2 [D,G,B,]2 B,,2 [D,G,B,]2 | C,2 [E,G,]2 G,,2 [E,G,]2 | %3
 G,,2 [D,G,B,]2 B,,2 [D,G,B,]2 | C,2 [E,G,]2 G,,2 [E,G,]2 | F,,2 [D,F,A,]2 F,,2 [D,F,A,]2 | %6
 C,2 [E,G,]2 G,,2 [D,G,B,]2 | C,2 [E,G,]2 G,,2 [E,G,]2 | G,,2 [D,G,B,]2 B,,2 [D,G,B,]2 | %9
 D,2 [^F,A,]2 A,,2 [F,A,]2 | G,,2 [D,G,B,]2 B,,2 [D,G,B,]2 | D,2 [^F,A,]2 A,,2 [F,A,]2 | %12
 G,,2 [D,G,B,]2 B,,2 [D,G,B,]2 | C,2 [E,G,]2 G,,2 [E,G,]2 | G,,2 [D,G,B,]2 D,2 [^F,A,]2 | %15
 G,,2 [D,G,B,]2 B,,2 [D,G,B,]2 | G,,2 [D,G,B,]2 B,,2 [D,G,B,]2 | C,2 [E,G,]2 G,,2 [E,G,]2 | %18
 G,,2 [D,G,B,]2 B,,2 [D,G,B,]2 | C,2 [E,G,]2 G,,2 [E,G,]2 | G,,2 [D,G,B,]2 B,,2 [D,G,B,]2 | %21
 C,2 [E,G,]2 G,,2 [E,G,]2 | G,,2 [D,G,B,]2 B,,2 [D,G,B,]2 | C,2 [E,G,]2 G,,2 [E,G,]2 | %24
 F,,2 [D,F,A,]2 F,,2 [D,F,A,]2 | C,2 [E,G,]2 G,,2 [D,G,B,]2 | [C,E,G,]8 |] %27

